X:924
T:Fair Mary
C:Joe Buchanan's Scottish Tome - Page 542.5
I:542 5
Z:Carl Allison
R:Waltz
L:1/4
M:3/4
K:G
"G"D2 G | "G"B2 d | "D7"B2 A | "Em"G3 | "D7"A2B | "G"d2 e | "Am7"B A G | "D7"A3 |
"G"d2 G | "Am7"c2 e | "D"d2 c | "Em"B2 G | "G"D2 B | "G7"G2 D | "C"E G2 | "G"G3 :|
